16x16/apps/application-x-pml18.svg

<svg xmlns="http://www.w3.org/2000/svg" width="16" height="16" version="1">
 <rect style="fill:#569a40" width="16" height="16" x="0" y="0" rx=".8" ry=".8"/>
 <path style="opacity:0.5;fill:#f4f4f7" d="M 1,1 V 12 H 2 V 2 H 14 V 14 H 4 v 1 H 15 V 1 Z m 0,12 v 2 h 2 v -2 z"/>
 <g style="font-size:34.2857132px;line-height:1.25;letter-spacing:0px;word-spacing:0px" transform="matrix(0.4593176,0,0,0.41666667,-16.940116,-9.2974318)">
  <path style="fill:#f4f4f7" transform="matrix(0.96761902,0,0,1,33.25248,17.513836)" d="M 19.694406,12 C 18.50497,12.08093 17.109863,12.252804 15,12.582031 V 15 36 h 4.014172 0.535156 v -7.245441 h 2.147938 c 4.151094,-0.346049 6.319639,-1.222858 8.272531,-4.251954 0.519685,-1.005713 0.779297,-2.205324 0.779297,-3.599609 0,-2.674286 -0.955755,-5.761088 -2.869141,-7.01823 C 26.437584,12.925247 24.506398,12.332459 22.086844,12.105558 21.336347,12.035177 20.538863,12 19.694406,12 Z m 0.31836,4.697103 c 0.850394,0 2.316747,0.06989 3.049031,0.207031 0.755906,0.114286 1.403959,0.320045 1.947266,0.617188 0.543307,0.297143 0.968304,0.708661 1.27539,1.234375 0.307087,0.525715 0.460938,1.335 0.460938,2.112143 0.177671,3.15014 -2.743081,3.210302 -5.118438,3.222471 h -2.077625 v -7.322895 c 0.642915,-0.04232 -0.427309,-0.07031 0.463438,-0.07031 z"/>
 </g>
</svg>

<svg xmlns="http://www.w3.org/2000/svg" width="16" height="16" version="1"><rect style="fill:#569a40" width="16" height="16" rx=".8" ry=".8"/><path style="opacity:.5;fill:#f4f4f7" d="M1 1v11h1V2h12v12H4v1h11V1zm0 12v2h2v-2z"/><g style="font-size:34.2857132px;line-height:1.25;letter-spacing:0;word-spacing:0"><path style="fill:#f4f4f7" transform="matrix(.44444 0 0 .41667 -1.667 -2)" d="M19.694 12c-1.189.08-2.584.253-4.694.582V36h4.549v-7.245h2.148c4.151-.346 6.32-1.223 8.273-4.252.52-1.006.78-2.206.78-3.6 0-2.674-.957-5.761-2.87-7.018-1.442-.96-3.374-1.553-5.793-1.78-.75-.07-1.548-.105-2.393-.105zm.319 4.697c.85 0 2.317.07 3.049.207.756.114 1.404.32 1.947.617.543.297.968.709 1.275 1.235.308.525.461 1.335.461 2.112.178 3.15-2.743 3.21-5.118 3.222h-2.078v-7.323c.643-.042-.427-.07.464-.07z"/></g></svg>
